X: 1521
T: Andy McGann's
R: reel
M: 4/4
K: Gmajor
dc|:BGGF GDBD|cBAG FADc|BD D2 cEAG|Fd^cd ed^cd|
BGGF GDBD|=cBAG FADc|BD D2 cEAG|FAdc BG G2:|
G2dG BGdG|G2 ed ^cdAF|G2dG BGdG|FD D2 FGAF|
G2dG BGdG|G2ed ^cdAF|Gdde Bd d2|FAdc BG G2:|

